COLOR/categories 16/16/preferences-bluetooth.svg

<svg height="16" width="16" xmlns="http://www.w3.org/2000/svg"><path d="m4.5547477.5c-3.6766038 0-4.0721988.30898425-4.0541825 3.3233128v4.1766873 4.1766949c-.018073 3.014321.3775787 3.323305 4.0541825 3.323305h6.8910693c3.676597 0 4.054183-.308942 4.054183-3.323305v-4.1766949-4.1766873c0-3.01435714-.377594-3.3233128-4.05419-3.3233128z" fill="#5884f4"/><path d="m5.8510218 9.9640958 4.2862022-3.9281903-2.1431016-2.142649v8.2134875l2.1431016-2.1426482-4.2862022-3.9281903" fill="none" stroke="#fff" stroke-linecap="square" stroke-width=".714292"/><path d="m4.5546875.5c-3.6766038 0-4.0727038.3098902-4.0546875 3.3242188v.5c-.0180163-3.0143287.3780837-3.3242188 4.0546875-3.3242188h6.8906245c3.676597 0 4.054688.3098617 4.054688 3.3242188v-.5c0-3.01435719-.378091-3.3242188-4.054688-3.3242188z" fill="#fff" opacity=".3"/><path d="m11.444751 15.5c3.676604 0 4.072704-.30989 4.054688-3.324219v-.5c.018016 3.014329-.378084 3.324219-4.054688 3.324219h-6.8906242c-3.67659703 0-4.05468803-.309862-4.05468803-3.324219v.5c0 3.014357.378091 3.324219 4.05468803 3.324219z" opacity=".2"/></svg>

<?xml version="1.0" encoding="UTF-8" standalone="no"?>
<svg
   xmlns:dc="http://purl.org/dc/elements/1.1/"
   xmlns:cc="http://creativecommons.org/ns#"
   xmlns:rdf="http://www.w3.org/1999/02/22-rdf-syntax-ns#"
   xmlns:svg="http://www.w3.org/2000/svg"
   xmlns="http://www.w3.org/2000/svg"
   xmlns:xlink="http://www.w3.org/1999/xlink"
   xmlns:sodipodi="http://sodipodi.sourceforge.net/DTD/sodipodi-0.dtd"
   xmlns:inkscape="http://www.inkscape.org/namespaces/inkscape"
   width="16"
   height="16"
   version="1.1"
   id="svg6"
   sodipodi:docname="preferences-bluetooth.svg"
   inkscape:version="0.92.4 (5da689c313, 2019-01-14)">
  <metadata
     id="metadata12">
    <rdf:RDF>
      <cc:Work
         rdf:about="">
        <dc:format>image/svg+xml</dc:format>
        <dc:type
           rdf:resource="http://purl.org/dc/dcmitype/StillImage" />
        <dc:title></dc:title>
      </cc:Work>
    </rdf:RDF>
  </metadata>
  <defs
     id="defs10">
    <clipPath
       clipPathUnits="userSpaceOnUse"
       id="clipPath983">
      <path
         sodipodi:nodetypes="scccssscsss"
         inkscape:connector-curvature="0"
         id="path985"
         d="m 325.09646,237 c -2.80769,0 -3.10979,0.28839 -3.09603,3.10176 V 244 v 3.89824 c -0.0138,2.81337 0.28834,3.10176 3.09603,3.10176 h 5.8075 C 333.71166,251 334,250.71165 334,247.89824 V 244 240.10176 C 334,237.28836 333.71165,237 330.90396,237 Z"
         style="color:#000000;display:inline;overflow:visible;visibility:visible;opacity:1;fill:#46a926;fill-opacity:1;fill-rule:nonzero;stroke:none;stroke-width:2;stroke-miterlimit:4;stroke-dasharray:none;stroke-opacity:1;marker:none;enable-background:accumulate" />
    </clipPath>
    <linearGradient
       inkscape:collect="always"
       xlink:href="#linearGradient927"
       id="linearGradient981"
       x1="332"
       y1="189"
       x2="332"
       y2="211"
       gradientUnits="userSpaceOnUse" />
    <linearGradient
       inkscape:collect="always"
       id="linearGradient927">
      <stop
         style="stop-color:#ffffff;stop-opacity:1;"
         offset="0"
         id="stop923" />
      <stop
         id="stop933"
         offset="0.125"
         style="stop-color:#ffffff;stop-opacity:0.09803922" />
      <stop
         id="stop931"
         offset="0.92500001"
         style="stop-color:#ffffff;stop-opacity:0.09803922" />
      <stop
         style="stop-color:#ffffff;stop-opacity:0.49803922"
         offset="1"
         id="stop925" />
    </linearGradient>
    <clipPath
       clipPathUnits="userSpaceOnUse"
       id="clipPath971">
      <path
         style="color:#000000;display:inline;overflow:visible;visibility:visible;opacity:1;fill:#46a926;fill-opacity:1;fill-rule:nonzero;stroke:none;stroke-width:2;stroke-miterlimit:4;stroke-dasharray:none;stroke-opacity:1;marker:none;enable-background:accumulate"
         d="m 327.8652,189 c -4.41209,0 -4.88682,0.45318 -4.8652,4.87419 V 200 206.12581 C 322.9783,210.54682 323.45311,211 327.8652,211 h 8.2696 C 340.54689,211 341,210.54688 341,206.12581 V 200 193.87419 C 341,189.45313 340.54688,189 336.13479,189 Z"
         id="path973"
         inkscape:connector-curvature="0"
         sodipodi:nodetypes="scccssscsss" />
    </clipPath>
  </defs>
  <sodipodi:namedview
     pagecolor="#ffffff"
     bordercolor="#666666"
     borderopacity="1"
     objecttolerance="10"
     gridtolerance="10"
     guidetolerance="10"
     inkscape:pageopacity="0"
     inkscape:pageshadow="2"
     inkscape:window-width="1920"
     inkscape:window-height="1016"
     id="namedview8"
     showgrid="false"
     inkscape:zoom="14.75"
     inkscape:cx="1.5901905"
     inkscape:cy="8"
     inkscape:window-x="0"
     inkscape:window-y="27"
     inkscape:window-maximized="1"
     inkscape:current-layer="svg6" />
  <path
     sodipodi:nodetypes="scccssscsss"
     inkscape:connector-curvature="0"
     id="path914"
     d="M 4.5547477,0.5 C 0.8781439,0.5 0.4825489,0.80898425 0.5005652,3.8233128 V 8.0000001 12.176695 C 0.4824922,15.191016 0.8781439,15.5 4.5547477,15.5 H 11.445817 C 15.122414,15.5 15.5,15.191058 15.5,12.176695 V 8.0000001 3.8233128 C 15.5,0.80895566 15.122406,0.5 11.44581,0.5 Z"
     style="color:#000000;display:inline;overflow:visible;visibility:visible;fill:#5884f4;fill-opacity:1;fill-rule:nonzero;stroke:none;stroke-width:0.71429157;marker:none;enable-background:accumulate" />
  <path
     inkscape:connector-curvature="0"
     id="path995-3"
     d="M 5.8510218,9.9640958 10.137224,6.0359055 7.9941224,3.8932565 V 12.106744 L 10.137224,9.9640958 5.8510218,6.0359055"
     style="display:inline;fill:none;fill-rule:evenodd;stroke:#ffffff;stroke-width:0.71429169;stroke-linecap:square;stroke-linejoin:miter;stroke-miterlimit:4;stroke-dasharray:none;stroke-opacity:1;enable-background:new"
     sodipodi:nodetypes="cccccc" />
  <path
     style="color:#000000;display:inline;overflow:visible;visibility:visible;fill:#ffffff;fill-opacity:1;fill-rule:nonzero;stroke:none;stroke-width:0.71429157;marker:none;enable-background:accumulate;opacity:0.3"
     d="M 4.5546875 0.5 C 0.8780837 0.5 0.4819837 0.8098902 0.5 3.8242188 L 0.5 4.3242188 C 0.4819837 1.3098901 0.8780837 1 4.5546875 1 L 11.445312 1 C 15.121909 1 15.5 1.3098617 15.5 4.3242188 L 15.5 3.8242188 C 15.5 0.80986161 15.121909 0.5 11.445312 0.5 L 4.5546875 0.5 z "
     id="path830" />
  <path
     id="path835"
     d="m 11.444751,15.5 c 3.676604,0 4.072704,-0.30989 4.054688,-3.324219 v -0.5 C 15.517455,14.69011 15.121355,15 11.444751,15 H 4.5541268 C 0.87752977,15 0.49943877,14.690138 0.49943877,11.675781 v 0.5 c 0,3.014357 0.378091,3.324219 4.05468803,3.324219 z"
     style="color:#000000;display:inline;overflow:visible;visibility:visible;opacity:0.2;fill:#000000;fill-opacity:1;fill-rule:nonzero;stroke:none;stroke-width:0.71429157;marker:none;enable-background:accumulate"
     inkscape:connector-curvature="0" />
</svg>
